!!!OTL: Mahnung der Liebe
!!!ARE: Europa, Mitteleuropa, Deutschland
!!!SCT: A0203
!!!YEM: Copyright 1995, estate of Helmut Schaffrath.
**kern
*ICvox
*Ivox
*M4/2
*k[]
*C:
=1
{1c
2d
2d
=2
2c
2f
2d
2e
=3
1f
2r}
{2f
=4
1d
1e
=5
1f
2g
[2e
=6
2e]
4d
4c
1d
=7
1c
1r}
=8
{1c
2d
2d
=9
2c
2f
2d
2e
=10
1f
2r}
{2f
=11
1d
1e
=12
1f
2g
[2e
=13
2e]
4d
4c
1d
=14
1c
2r}
{2f
=15
1d
2e
[2f
=16
2f]
1c
[2d
=17
2d]
2c
1B-
=18
1A
2r}
{2F
=19
1c
1d
=20
1e
1f
=21
2.g
4f
1e
=22
1d
2r}
{2f
=23
1e
1d
=24
1c
2r
2d
=25
2d
2c
2B-
2B-
=26
1A
1r}
=27
{4F
4G
4A
4B-
2c
2c
=28
2d
2f
2e
2d}
=29
{4d
4c
2.c
8B
8A
2B
=30
1c
1r}
==
!!!AGN: Romanze, Ballade, Lied
!! Minnenbergs Christl. Reuterliedern 1582 No. 3.
!!!ONB: ESAC (Essen Associative Code) Database: ALTDEU
!!!AMT: simple quadruple
!!!AIN: vox
!!!EED: Helmut Schaffrath
!!!EEV: 1.0
*-
